G28 ; home all axes
G1 Z5 F5000 ; lift nozzle
G29 A; Activate UBL
G29 L1; Load the mesh stored in slot 1 (from G29 S1)
G29 J; Probe 3 points
G1 X2.0 Y2.0 Z0.0 F5000.0 ; go to edge of print area
G92 E0 ; Reset extruder length to zero
M190 S40; Set and wait for bed temperature
M109 S190; Set and wait for hotend temperature
G1 Z0.200 F1000.0 ; Go to Start Z position
G1 Y62.0 E9.0 F1000.0 ; intro line
G1 Y102.0 E21.5 F1000.0 ; intro line
G1 E20; small retract
G92 E0.0 ; reset extruder distance position
G1 Y200.0 Z0.95
G1 X20.0
G1 Z0.0
M190 R40
M109 R194
; generated by Slic3r 1.3.0 on 2021-01-17 at 12:47:02

; external perimeters extrusion width = 0.44mm (3.38mm^3/s)
; perimeters extrusion width = 0.48mm (7.54mm^3/s)
; infill extrusion width = 0.48mm (10.05mm^3/s)
; solid infill extrusion width = 0.48mm (2.51mm^3/s)
; top infill extrusion width = 0.48mm (1.88mm^3/s)

M107
M190 S40 ; set bed temperature and wait for it to be reached
M104 S194 ; set temperature

; Filament gcode

M109 S194 ; set temperature and wait for it to be reached
G21 ; set units to millimeters
G90 ; use absolute coordinates
M82 ; use absolute distances for extrusion
G92 E0
G1 Z0.366 F7800.000
G1 E-2.00000 F2400.00000
G92 E0
G1 X27.518 Y206.970 F7800.000
G1 E2.00000 F2400.00000
G1 F1980
G1 X31.137 Y210.589 E2.45355
G1 X31.137 Y211.137 E2.50210
G1 X30.589 Y211.137 E2.55065
G1 X26.970 Y207.518 E3.00419
G1 X22.350 Y212.137 E3.58304
G1 X7.863 Y212.137 E4.86657
G1 X7.863 Y192.650 E6.59309
G1 X12.650 Y187.863 E7.19296
G1 X32.137 Y187.863 E8.91948
G1 X32.137 Y202.350 E10.20302
G1 X27.560 Y206.927 E10.77655
G1 E8.77655 F2400.00000
G92 E0
G1 X21.830 Y211.742 F7800.000
G1 E2.00000 F2400.00000
G1 F1980
G1 X31.742 Y201.830 E3.24750
G1 X31.742 Y200.912 E3.32924
G1 X20.912 Y211.742 E4.69234
G1 X19.994 Y211.742 E4.77408
G1 X31.742 Y199.994 E6.25277
G1 X31.742 Y199.075 E6.33451
G1 X19.075 Y211.742 E7.92880
G1 X18.157 Y211.742 E8.01054
G1 X31.742 Y198.157 E9.72042
G1 X31.742 Y197.238 E9.80216
G1 X17.238 Y211.742 E11.62764
G1 X16.320 Y211.742 E11.70938
G1 X31.742 Y196.320 E13.65045
G1 X31.742 Y195.401 E13.73219
G1 X15.401 Y211.742 E15.78886
G1 X14.483 Y211.742 E15.87060
G1 X31.742 Y194.483 E18.04286
G1 X31.742 Y193.564 E18.12460
G1 X13.564 Y211.742 E20.41246
G1 X12.646 Y211.742 E20.49420
G1 X31.742 Y192.646 E22.89765
G1 X31.742 Y191.728 E22.97939
G1 X11.728 Y211.742 E25.49844
G1 X10.809 Y211.742 E25.58017
G1 X31.742 Y190.809 E28.21482
G1 X31.742 Y189.891 E28.29656
G1 X9.891 Y211.742 E31.04679
G1 X8.972 Y211.742 E31.12853
G1 X31.742 Y188.972 E33.99436
G1 X31.742 Y188.258 E34.05796
G1 X31.539 Y188.258 E34.07610
G1 X8.258 Y211.539 E37.00621
G1 X8.258 Y210.620 E37.08795
G1 X30.620 Y188.258 E39.90247
G1 X29.702 Y188.258 E39.98420
G1 X8.258 Y209.702 E42.68312
G1 X8.258 Y208.783 E42.76486
G1 X28.783 Y188.258 E45.34819
G1 X27.865 Y188.258 E45.42993
G1 X8.258 Y207.865 E47.89766
G1 X8.258 Y206.946 E47.97939
G1 X26.946 Y188.258 E50.33153
G1 X26.028 Y188.258 E50.41327
G1 X8.258 Y206.028 E52.64981
G1 X8.258 Y205.109 E52.73155
G1 X25.109 Y188.258 E54.85249
G1 X24.191 Y188.258 E54.93423
G1 X8.258 Y204.191 E56.93958
G1 X8.258 Y203.272 E57.02132
G1 X23.272 Y188.258 E58.91108
G1 X22.354 Y188.258 E58.99281
G1 X8.258 Y202.354 E60.76697
G1 X8.258 Y201.436 E60.84871
G1 X21.436 Y188.258 E62.50728
G1 X20.517 Y188.258 E62.58902
G1 X8.258 Y200.517 E64.13199
G1 X8.258 Y199.599 E64.21373
G1 X19.599 Y188.258 E65.64110
G1 X18.680 Y188.258 E65.72284
G1 X8.258 Y198.680 E67.03462
G1 X8.258 Y197.762 E67.11636
G1 X17.762 Y188.258 E68.31255
G1 X16.843 Y188.258 E68.39429
G1 X8.258 Y196.843 E69.47488
G1 X8.258 Y195.925 E69.55662
G1 X15.925 Y188.258 E70.52161
G1 X15.006 Y188.258 E70.60335
G1 X8.258 Y195.006 E71.45275
G1 X8.258 Y194.088 E71.53449
G1 X14.088 Y188.258 E72.26830
G1 X13.170 Y188.258 E72.35004
G1 X8.258 Y193.170 E72.96825
G1 X12.667 Y188.760 E73.52317
G1 Z0.666 F7800.000
G1 E71.52317 F2400.00000
G92 E0
G1 X27.719 Y206.970 F7800.000
G1 E2.00000 F2400.00000
G1 F1200.66
G1 X31.280 Y210.530 E2.21258
G1 X31.280 Y211.280 E2.24422
G1 X30.530 Y211.280 E2.27587
G1 X26.970 Y207.719 E2.48845
G1 X22.409 Y212.280 E2.76073
G1 X7.720 Y212.280 E3.38082
G1 X7.720 Y192.591 E4.21198
G1 X12.591 Y187.720 E4.50279
G1 X32.280 Y187.720 E5.33396
G1 X32.280 Y202.409 E5.95404
G1 X27.762 Y206.927 E6.22379
G1 E4.22379 F2400.00000
G92 E0
; Filament-specific end gcode 
;END gcode for filament


M104 S0 ; set temperature
M140 S0 ; set bed temperature
; filament used = 84.5mm (0.2cm3)
; total filament cost = 0.0

; avoid_crossing_perimeters = 0
; bed_shape = 0x0,220x0,220x220,0x220
; bed_temperature = 40
; before_layer_gcode = 
; between_objects_gcode = 
; bridge_acceleration = 0
; bridge_fan_speed = 100
; brim_connections_width = 0
; brim_width = 0
; complete_objects = 0
; cooling = 1
; default_acceleration = 0
; disable_fan_first_layers = 3
; duplicate_distance = 6
; end_filament_gcode = "; Filament-specific end gcode \n;END gcode for filament\n"
; end_gcode = 
; extruder_clearance_height = 20
; extruder_clearance_radius = 20
; extruder_offset = 0x0
; extrusion_axis = E
; extrusion_multiplier = 0.901077
; fan_always_on = 0
; fan_below_layer_time = 60
; filament_colour = #FFFFFF
; filament_cost = 0
; filament_density = 0
; filament_diameter = 1.75
; filament_max_volumetric_speed = 0
; filament_notes = ""
; first_layer_acceleration = 0
; first_layer_bed_temperature = 40
; first_layer_extrusion_width = 0.725034
; first_layer_speed = 33
; first_layer_temperature = 194
; gcode_arcs = 0
; gcode_comments = 0
; gcode_flavor = reprap
; has_heatbed = 1
; infill_acceleration = 0
; infill_first = 0
; interior_brim_width = 0
; layer_gcode = 
; max_fan_speed = 100
; max_layer_height = 0.3
; max_print_speed = 120
; max_volumetric_speed = 0
; min_fan_speed = 35
; min_layer_height = 0.15
; min_print_speed = 5
; min_skirt_length = 0
; notes = 
; nozzle_diameter = 0.4
; only_retract_when_crossing_perimeters = 1
; ooze_prevention = 0
; output_filename_format = [input_filename_base].gcode
; perimeter_acceleration = 0
; post_process = 
; pressure_advance = 0
; printer_notes = 
; resolution = 0
; retract_before_travel = 2
; retract_layer_change = 0
; retract_length = 2
; retract_length_toolchange = 10
; retract_lift = 0
; retract_lift_above = 0
; retract_lift_below = 0
; retract_restart_extra = 0
; retract_restart_extra_toolchange = 0
; retract_speed = 40
; skirt_distance = 6
; skirt_height = 1
; skirts = 0
; slowdown_below_layer_time = 5
; spiral_vase = 0
; standby_temperature_delta = -5
; start_filament_gcode = "; Filament gcode\n"
; start_gcode = 
; temperature = 194
; threads = 8
; toolchange_gcode = 
; travel_speed = 130
; use_firmware_retraction = 0
; use_relative_e_distances = 0
; use_set_and_wait_bed = 0
; use_set_and_wait_extruder = 0
; use_volumetric_e = 0
; vibration_limit = 0
; wipe = 0
; z_offset = 0
; z_steps_per_mm = 0
; adaptive_slicing = 0
; adaptive_slicing_quality = 75%
; dont_support_bridges = 1
; extrusion_width = 0
; first_layer_height = 0.36579
; infill_only_where_needed = 0
; interface_shells = 0
; layer_height = 0.3
; match_horizontal_surfaces = 0
; raft_layers = 0
; regions_overlap = 0
; seam_position = aligned
; sequential_print_priority = 0
; support_material = 0
; support_material_angle = 0
; support_material_buildplate_only = 0
; support_material_contact_distance = 0.2
; support_material_enforce_layers = 0
; support_material_extruder = 1
; support_material_extrusion_width = 0
; support_material_interface_extruder = 1
; support_material_interface_extrusion_width = 0
; support_material_interface_layers = 3
; support_material_interface_spacing = 0
; support_material_interface_speed = 100%
; support_material_max_layers = 0
; support_material_pattern = pillars
; support_material_spacing = 2.5
; support_material_speed = 60
; support_material_threshold = 60%
; xy_size_compensation = 0
; bottom_infill_pattern = rectilinear
; bottom_solid_layers = 1
; bridge_flow_ratio = 1
; bridge_speed = 60
; external_perimeter_extrusion_width = 0
; external_perimeter_speed = 50%
; external_perimeters_first = 0
; extra_perimeters = 1
; fill_angle = 45
; fill_density = 0%
; fill_gaps = 1
; fill_pattern = stars
; gap_fill_speed = 20
; infill_every_layers = 1
; infill_extruder = 1
; infill_extrusion_width = 0
; infill_overlap = 55%
; infill_speed = 80
; overhangs = 1
; perimeter_extruder = 1
; perimeter_extrusion_width = 0
; perimeter_speed = 60
; perimeters = 1
; small_perimeter_speed = 15
; solid_infill_below_area = 70
; solid_infill_every_layers = 0
; solid_infill_extruder = 1
; solid_infill_extrusion_width = 0
; solid_infill_speed = 20
; thin_walls = 1
; top_infill_extrusion_width = 0
; top_infill_pattern = rectilinear
; top_solid_infill_speed = 15
; top_solid_layers = 0
G1 Y200.0 Z0.95
G1 X50.0
G1 Z0.0
M190 R40
M109 R192
; generated by Slic3r 1.3.0 on 2021-01-17 at 12:47:03

; external perimeters extrusion width = 0.44mm (3.38mm^3/s)
; perimeters extrusion width = 0.48mm (7.54mm^3/s)
; infill extrusion width = 0.48mm (10.05mm^3/s)
; solid infill extrusion width = 0.48mm (2.51mm^3/s)
; top infill extrusion width = 0.48mm (1.88mm^3/s)

M107
M190 S40 ; set bed temperature and wait for it to be reached
M104 S192 ; set temperature

; Filament gcode

M109 S192 ; set temperature and wait for it to be reached
G21 ; set units to millimeters
G90 ; use absolute coordinates
M82 ; use absolute distances for extrusion
G92 E0
G1 Z0.386 F7800.000
G1 E-2.00000 F2400.00000
G92 E0
G1 X57.453 Y206.970 F7800.000
G1 E2.00000 F2400.00000
G1 F3060
G1 X61.092 Y210.608 E2.61458
G1 X61.092 Y211.092 E2.67234
G1 X60.608 Y211.092 E2.73011
G1 X56.970 Y207.453 E3.34469
G1 X52.331 Y212.092 E4.12816
G1 X37.908 Y212.092 E5.85073
G1 X37.908 Y192.669 E8.17045
G1 X42.669 Y187.908 E8.97459
G1 X62.092 Y187.908 E11.29431
G1 X62.092 Y202.331 E13.01687
G1 X57.496 Y206.927 E13.79318
G1 E11.79318 F2400.00000
G92 E0
G1 X51.742 Y211.644 F7800.000
G1 E2.00000 F2400.00000
G1 F3060
G1 X61.644 Y201.742 E3.70839
G1 X61.644 Y200.683 E3.83759
G1 X50.683 Y211.644 E5.72870
G1 X49.624 Y211.644 E5.85790
G1 X61.644 Y199.624 E7.93173
G1 X61.644 Y198.565 E8.06094
G1 X48.565 Y211.644 E10.31749
G1 X47.506 Y211.644 E10.44670
G1 X61.644 Y197.506 E12.88597
G1 X61.644 Y196.447 E13.01518
G1 X46.447 Y211.644 E15.63718
G1 X45.388 Y211.644 E15.76638
G1 X61.644 Y195.388 E18.57110
G1 X61.644 Y194.329 E18.70031
G1 X44.329 Y211.644 E21.68775
G1 X43.269 Y211.644 E21.81695
G1 X61.644 Y193.269 E24.98712
G1 X61.644 Y192.210 E25.11633
G1 X42.210 Y211.644 E28.46921
G1 X41.151 Y211.644 E28.59842
G1 X61.644 Y191.151 E32.13403
G1 X61.644 Y190.092 E32.26323
G1 X40.092 Y211.644 E35.98157
G1 X39.033 Y211.644 E36.11077
G1 X61.644 Y189.033 E40.01183
G1 X61.644 Y188.356 E40.09445
G1 X61.262 Y188.356 E40.14103
G1 X38.356 Y211.262 E44.09305
G1 X38.356 Y210.203 E44.22226
G1 X60.203 Y188.356 E47.99155
G1 X59.144 Y188.356 E48.12076
G1 X38.356 Y209.144 E51.70733
G1 X38.356 Y208.085 E51.83653
G1 X58.085 Y188.356 E55.24038
G1 X57.026 Y188.356 E55.36959
G1 X38.356 Y207.026 E58.59072
G1 X38.356 Y205.967 E58.71992
G1 X55.967 Y188.356 E61.75833
G1 X54.908 Y188.356 E61.88753
G1 X38.356 Y204.908 E64.74321
G1 X38.356 Y203.849 E64.87242
G1 X53.849 Y188.356 E67.54538
G1 X52.790 Y188.356 E67.67458
G1 X38.356 Y202.790 E70.16482
G1 X38.356 Y201.731 E70.29402
G1 X51.731 Y188.356 E72.60154
G1 X50.671 Y188.356 E72.73074
G1 X38.356 Y200.671 E74.85554
G1 X38.356 Y199.612 E74.98474
G1 X49.612 Y188.356 E76.92681
G1 X48.553 Y188.356 E77.05602
G1 X38.356 Y198.553 E78.81536
G1 X38.356 Y197.494 E78.94457
G1 X47.494 Y188.356 E80.52119
G1 X46.435 Y188.356 E80.65040
G1 X38.356 Y196.435 E82.04430
G1 X38.356 Y195.376 E82.17351
G1 X45.376 Y188.356 E83.38469
G1 X44.317 Y188.356 E83.51389
G1 X38.356 Y194.317 E84.54235
G1 X38.356 Y193.258 E84.67155
G1 X43.258 Y188.356 E85.51729
G1 Z0.686 F7800.000
G1 E83.51729 F2400.00000
G92 E0
G1 X57.719 Y206.970 F7800.000
G1 E2.00000 F2400.00000
G1 F1200.66
G1 X61.280 Y210.530 E2.23952
G1 X61.280 Y211.280 E2.27517
G1 X60.530 Y211.280 E2.31083
G1 X56.970 Y207.719 E2.55035
G1 X52.409 Y212.280 E2.85714
G1 X37.720 Y212.280 E3.55581
G1 X37.720 Y192.591 E4.49231
G1 X42.591 Y187.720 E4.81997
G1 X62.280 Y187.720 E5.75647
G1 X62.280 Y202.409 E6.45514
G1 X57.762 Y206.927 E6.75907
G1 E4.75907 F2400.00000
G92 E0
; Filament-specific end gcode 
;END gcode for filament


M104 S0 ; set temperature
M140 S0 ; set bed temperature
; filament used = 100.1mm (0.2cm3)
; total filament cost = 0.0

; avoid_crossing_perimeters = 0
; bed_shape = 0x0,220x0,220x220,0x220
; bed_temperature = 40
; before_layer_gcode = 
; between_objects_gcode = 
; bridge_acceleration = 0
; bridge_fan_speed = 100
; brim_connections_width = 0
; brim_width = 0
; complete_objects = 0
; cooling = 1
; default_acceleration = 0
; disable_fan_first_layers = 3
; duplicate_distance = 6
; end_filament_gcode = "; Filament-specific end gcode \n;END gcode for filament\n"
; end_gcode = 
; extruder_clearance_height = 20
; extruder_clearance_radius = 20
; extruder_offset = 0x0
; extrusion_axis = E
; extrusion_multiplier = 1.01527
; fan_always_on = 0
; fan_below_layer_time = 60
; filament_colour = #FFFFFF
; filament_cost = 0
; filament_density = 0
; filament_diameter = 1.75
; filament_max_volumetric_speed = 0
; filament_notes = ""
; first_layer_acceleration = 0
; first_layer_bed_temperature = 40
; first_layer_extrusion_width = 0.815952
; first_layer_speed = 51
; first_layer_temperature = 192
; gcode_arcs = 0
; gcode_comments = 0
; gcode_flavor = reprap
; has_heatbed = 1
; infill_acceleration = 0
; infill_first = 0
; interior_brim_width = 0
; layer_gcode = 
; max_fan_speed = 100
; max_layer_height = 0.3
; max_print_speed = 120
; max_volumetric_speed = 0
; min_fan_speed = 35
; min_layer_height = 0.15
; min_print_speed = 5
; min_skirt_length = 0
; notes = 
; nozzle_diameter = 0.4
; only_retract_when_crossing_perimeters = 1
; ooze_prevention = 0
; output_filename_format = [input_filename_base].gcode
; perimeter_acceleration = 0
; post_process = 
; pressure_advance = 0
; printer_notes = 
; resolution = 0
; retract_before_travel = 2
; retract_layer_change = 0
; retract_length = 2
; retract_length_toolchange = 10
; retract_lift = 0
; retract_lift_above = 0
; retract_lift_below = 0
; retract_restart_extra = 0
; retract_restart_extra_toolchange = 0
; retract_speed = 40
; skirt_distance = 6
; skirt_height = 1
; skirts = 0
; slowdown_below_layer_time = 5
; spiral_vase = 0
; standby_temperature_delta = -5
; start_filament_gcode = "; Filament gcode\n"
; start_gcode = 
; temperature = 192
; threads = 8
; toolchange_gcode = 
; travel_speed = 130
; use_firmware_retraction = 0
; use_relative_e_distances = 0
; use_set_and_wait_bed = 0
; use_set_and_wait_extruder = 0
; use_volumetric_e = 0
; vibration_limit = 0
; wipe = 0
; z_offset = 0
; z_steps_per_mm = 0
; adaptive_slicing = 0
; adaptive_slicing_quality = 75%
; dont_support_bridges = 1
; extrusion_width = 0
; first_layer_height = 0.385943
; infill_only_where_needed = 0
; interface_shells = 0
; layer_height = 0.3
; match_horizontal_surfaces = 0
; raft_layers = 0
; regions_overlap = 0
; seam_position = aligned
; sequential_print_priority = 0
; support_material = 0
; support_material_angle = 0
; support_material_buildplate_only = 0
; support_material_contact_distance = 0.2
; support_material_enforce_layers = 0
; support_material_extruder = 1
; support_material_extrusion_width = 0
; support_material_interface_extruder = 1
; support_material_interface_extrusion_width = 0
; support_material_interface_layers = 3
; support_material_interface_spacing = 0
; support_material_interface_speed = 100%
; support_material_max_layers = 0
; support_material_pattern = pillars
; support_material_spacing = 2.5
; support_material_speed = 60
; support_material_threshold = 60%
; xy_size_compensation = 0
; bottom_infill_pattern = rectilinear
; bottom_solid_layers = 1
; bridge_flow_ratio = 1
; bridge_speed = 60
; external_perimeter_extrusion_width = 0
; external_perimeter_speed = 50%
; external_perimeters_first = 0
; extra_perimeters = 1
; fill_angle = 45
