G28 ; home all axes
G1 Z5 F5000 ; lift nozzle
G29 A; Activate UBL
G29 L1; Load the mesh stored in slot 1 (from G29 S1)
G29 J; Probe 3 points
G1 X2.0 Y2.0 Z0.0 F5000.0 ; go to edge of print area
G92 E0 ; Reset extruder length to zero
M190 S40; Set and wait for bed temperature
M109 S190; Set and wait for hotend temperature
G1 Z0.200 F1000.0 ; Go to Start Z position
G1 Y62.0 E9.0 F1000.0 ; intro line
G1 Y102.0 E21.5 F1000.0 ; intro line
G1 E20; small retract
G92 E0.0 ; reset extruder distance position
; generated by Slic3r 1.3.0 on 2021-02-10 at 21:46:58

; external perimeters extrusion width = 0.44mm (2.61mm^3/s)
; perimeters extrusion width = 0.56mm (6.81mm^3/s)
; infill extrusion width = 0.50mm (8.02mm^3/s)
; solid infill extrusion width = 0.56mm (2.27mm^3/s)
; top infill extrusion width = 0.56mm (1.70mm^3/s)

M107
M190 S44 ; set bed temperature and wait for it to be reached
M104 S218 ; set temperature

; Filament gcode

M109 S218 ; set temperature and wait for it to be reached
G21 ; set units to millimeters
G90 ; use absolute coordinates
M82 ; use absolute distances for extrusion
G92 E0
G1 Z0.390 F7800.000
G1 E-2.00000 F2400.00000
G92 E0
G1 X53.223 Y171.759 F7800.000
G1 E2.00000 F2400.00000
G1 F1200
G1 X58.242 Y171.759 E2.30392
G1 X58.242 Y166.759 E2.60670
G1 X65.223 Y166.759 E3.02943
G1 X65.223 Y174.741 E3.51272
G1 X57.723 Y174.741 E3.96688
G1 X57.723 Y182.241 E4.42104
G1 X49.011 Y182.241 E4.94856
G1 X49.011 Y178.259 E5.18963
G1 X53.742 Y178.259 E5.47608
G1 X53.742 Y174.741 E5.68918
G1 X46.242 Y174.741 E6.14334
G1 X46.242 Y166.759 E6.62663
G1 X53.223 Y166.759 E7.04936
G1 X53.223 Y171.699 E7.34850
G1 X53.535 Y171.448 F7800.000
G1 F1200
G1 X57.930 Y171.448 E7.61467
G1 X57.930 Y166.448 E7.91744
G1 X65.535 Y166.448 E8.37793
G1 X65.535 Y175.052 E8.89898
G1 X58.035 Y175.052 E9.35314
G1 X58.035 Y182.552 E9.80730
G1 X48.700 Y182.552 E10.37258
G1 X48.700 Y177.948 E10.65141
G1 X53.430 Y177.948 E10.93786
G1 X53.430 Y175.052 E11.11320
G1 X45.930 Y175.052 E11.56736
G1 X45.930 Y166.448 E12.08841
G1 X53.535 Y166.448 E12.54890
G1 X53.535 Y171.388 E12.84804
G1 X53.664 Y171.826 F7800.000
G1 E10.84804 F2400.00000
G92 E0
G1 X58.432 Y172.040 F7800.000
G1 E2.00000 F2400.00000
G1 F1200
G1 X63.522 Y166.950 E2.43832
G1 X63.079 Y166.950 E2.46532
G1 X58.432 Y171.597 E2.86546
G1 X58.432 Y171.154 E2.89246
G1 X62.636 Y166.950 E3.25443
G1 X62.192 Y166.950 E3.28142
G1 X58.432 Y170.710 E3.60521
G1 X58.432 Y170.267 E3.63221
G1 X61.749 Y166.950 E3.91782
G1 X61.306 Y166.950 E3.94482
G1 X58.432 Y169.823 E4.19225
G1 X58.432 Y169.380 E4.21925
G1 X60.862 Y166.950 E4.42851
G1 X60.419 Y166.950 E4.45550
G1 X58.432 Y168.937 E4.62658
G1 X58.432 Y168.493 E4.65358
G1 X59.976 Y166.950 E4.78648
G1 X59.532 Y166.950 E4.81348
G1 X58.432 Y168.050 E4.90820
G1 X58.432 Y167.607 E4.93520
G1 X59.089 Y166.950 E4.99175
G1 E2.99175 F2400.00000
G92 E0
G1 X57.532 Y174.714 F7800.000
G1 E2.00000 F2400.00000
G1 F1200
G1 X53.932 Y178.314 E2.31000
G1 E0.31000 F2400.00000
G92 E0
G1 X49.563 Y178.693 F7800.000
G1 E2.00000 F2400.00000
G1 F1200
G1 X49.202 Y178.693 E2.02200
G1 X49.202 Y179.054 E2.04401
G1 X49.806 Y178.450 E2.09601
G1 X50.249 Y178.450 E2.12301
G1 X49.202 Y179.497 E2.21319
G1 X49.202 Y179.941 E2.24018
G1 X50.692 Y178.450 E2.36854
G1 X51.136 Y178.450 E2.39554
G1 X49.202 Y180.384 E2.56207
G1 X49.202 Y180.827 E2.58907
G1 X51.579 Y178.450 E2.79378
G1 X52.022 Y178.450 E2.82077
G1 X49.202 Y181.271 E3.06366
G1 X49.202 Y181.714 E3.09066
G1 X52.466 Y178.450 E3.37173
G1 X52.909 Y178.450 E3.39872
G1 X49.309 Y182.050 E3.70872
G1 X49.753 Y182.050 E3.73572
G1 X53.353 Y178.450 E4.04571
G1 X53.796 Y178.450 E4.07271
G1 X50.196 Y182.050 E4.38271
G1 X50.639 Y182.050 E4.40970
G1 X57.532 Y175.157 E5.00326
G1 X57.532 Y175.600 E5.03026
G1 X51.083 Y182.050 E5.58564
G1 X51.526 Y182.050 E5.61263
G1 X57.532 Y176.044 E6.12983
G1 X57.532 Y176.487 E6.15683
G1 X51.969 Y182.050 E6.63586
G1 X52.413 Y182.050 E6.66285
G1 X57.532 Y176.930 E7.10370
G1 X57.532 Y177.374 E7.13069
G1 X52.856 Y182.050 E7.53336
G1 X53.299 Y182.050 E7.56036
G1 X57.532 Y177.817 E7.92485
G1 X57.532 Y178.261 E7.95185
G1 X53.743 Y182.050 E8.27816
G1 X54.186 Y182.050 E8.30516
G1 X57.532 Y178.704 E8.59330
G1 X57.532 Y179.147 E8.62029
G1 X54.629 Y182.050 E8.87025
G1 X55.073 Y182.050 E8.89725
G1 X57.532 Y179.591 E9.10903
G1 X57.532 Y180.034 E9.13603
G1 X55.516 Y182.050 E9.30963
G1 X55.960 Y182.050 E9.33663
G1 X57.532 Y180.477 E9.47205
G1 X57.532 Y180.921 E9.49905
G1 X56.403 Y182.050 E9.59630
G1 X56.846 Y182.050 E9.62329
G1 X57.532 Y181.364 E9.68237
G1 X57.532 Y181.807 E9.70936
G1 X57.290 Y182.050 E9.73026
G1 E7.73026 F2400.00000
G92 E0
G1 X64.790 Y174.550 F7800.000
G1 E2.00000 F2400.00000
G1 F1200
G1 X65.032 Y174.307 E2.02089
G1 X65.032 Y173.864 E2.04789
G1 X64.346 Y174.550 E2.10696
G1 X63.903 Y174.550 E2.13396
G1 X65.032 Y173.421 E2.23121
G1 X65.032 Y172.977 E2.25820
G1 X63.460 Y174.550 E2.39363
G1 X63.016 Y174.550 E2.42062
G1 X65.032 Y172.534 E2.59423
G1 X65.032 Y172.091 E2.62122
G1 X62.573 Y174.550 E2.83301
G1 X62.129 Y174.550 E2.86000
G1 X65.032 Y171.647 E3.10996
G1 X65.032 Y171.204 E3.13696
G1 X61.686 Y174.550 E3.42509
G1 X61.243 Y174.550 E3.45209
G1 X65.032 Y170.761 E3.77841
G1 X65.032 Y170.317 E3.80540
G1 X60.799 Y174.550 E4.16989
G1 X60.356 Y174.550 E4.19689
G1 X65.032 Y169.874 E4.59956
G1 X65.032 Y169.430 E4.62655
G1 X59.913 Y174.550 E5.06740
G1 X59.469 Y174.550 E5.09440
G1 X65.032 Y168.987 E5.57342
G1 X65.032 Y168.544 E5.60042
G1 X59.026 Y174.550 E6.11762
G1 X58.583 Y174.550 E6.14462
G1 X65.032 Y168.100 E6.70000
G1 X65.032 Y167.657 E6.72699
G1 X58.139 Y174.550 E7.32055
G1 X57.696 Y174.550 E7.34754
G1 X65.032 Y167.214 E7.97928
G1 X65.032 Y166.950 E7.99533
G1 X64.853 Y166.950 E8.00628
G1 X53.932 Y177.870 E8.94663
G1 X53.932 Y177.427 E8.97362
G1 X64.409 Y166.950 E9.87580
G1 X63.966 Y166.950 E9.90279
G1 X53.932 Y176.984 E10.76679
G1 X53.932 Y176.540 E10.79379
G1 X58.522 Y171.950 E11.18906
G1 X58.079 Y171.950 E11.21605
G1 X53.932 Y176.097 E11.57314
G1 X53.932 Y175.654 E11.60014
G1 X57.636 Y171.950 E11.91905
G1 X57.192 Y171.950 E11.94605
G1 X53.932 Y175.210 E12.22678
G1 X53.932 Y174.767 E12.25378
G1 X56.749 Y171.950 E12.49633
G1 X56.306 Y171.950 E12.52333
G1 X53.706 Y174.550 E12.74722
G1 X53.262 Y174.550 E12.77421
G1 X55.862 Y171.950 E12.99810
G1 X55.419 Y171.950 E13.02510
G1 X52.819 Y174.550 E13.24898
G1 X52.376 Y174.550 E13.27598
G1 X54.976 Y171.950 E13.49987
G1 X54.532 Y171.950 E13.52686
G1 X51.932 Y174.550 E13.75075
G1 X51.489 Y174.550 E13.77775
G1 X54.089 Y171.950 E14.00163
G1 X53.646 Y171.950 E14.02863
G1 X51.046 Y174.550 E14.25252
G1 X50.602 Y174.550 E14.27951
G1 X53.202 Y171.950 E14.50340
G1 X53.032 Y171.950 E14.51375
G1 X53.032 Y171.677 E14.53040
G1 X50.159 Y174.550 E14.77782
G1 X49.715 Y174.550 E14.80482
G1 X53.032 Y171.233 E15.09043
G1 X53.032 Y170.790 E15.11742
G1 X49.272 Y174.550 E15.44121
G1 X48.829 Y174.550 E15.46820
G1 X53.032 Y170.347 E15.83016
G1 X53.032 Y169.903 E15.85716
G1 X48.385 Y174.550 E16.25730
G1 X47.942 Y174.550 E16.28429
G1 X53.032 Y169.460 E16.72261
G1 X53.032 Y169.016 E16.74961
G1 X47.499 Y174.550 E17.22610
G1 X47.055 Y174.550 E17.25310
G1 X53.032 Y168.573 E17.76777
G1 X53.032 Y168.130 E17.79476
G1 X46.612 Y174.550 E18.34761
G1 X46.432 Y174.550 E18.35856
G1 X46.432 Y174.286 E18.37461
G1 X53.032 Y167.686 E18.94294
G1 X53.032 Y167.243 E18.96993
G1 X46.432 Y173.843 E19.53826
G1 X46.432 Y173.400 E19.56526
G1 X52.882 Y166.950 E20.12064
G1 X52.439 Y166.950 E20.14764
G1 X46.432 Y172.956 E20.66485
G1 X46.432 Y172.513 E20.69184
G1 X51.995 Y166.950 E21.17088
G1 X51.552 Y166.950 E21.19787
G1 X46.432 Y172.070 E21.63872
G1 X46.432 Y171.626 E21.66572
G1 X51.109 Y166.950 E22.06840
G1 X50.665 Y166.950 E22.09539
G1 X46.432 Y171.183 E22.45989
G1 X46.432 Y170.740 E22.48689
G1 X50.222 Y166.950 E22.81321
G1 X49.778 Y166.950 E22.84020
G1 X46.432 Y170.296 E23.12835
G1 X46.432 Y169.853 E23.15534
G1 X49.335 Y166.950 E23.40531
G1 X48.892 Y166.950 E23.43230
G1 X46.432 Y169.409 E23.64409
G1 X46.432 Y168.966 E23.67109
G1 X48.448 Y166.950 E23.84470
G1 X48.005 Y166.950 E23.87169
G1 X46.432 Y168.523 E24.00713
G1 X46.432 Y168.079 E24.03412
G1 X47.562 Y166.950 E24.13138
G1 X47.118 Y166.950 E24.15837
G1 X46.432 Y167.636 E24.21745
G1 X46.432 Y167.193 E24.24445
G1 X46.675 Y166.950 E24.26535
G1 E22.26535 F2400.00000
G92 E0
G1 X53.223 Y162.741 F7800.000
G1 E2.00000 F2400.00000
G1 F1200
G1 X46.242 Y162.741 E2.42273
G1 X46.242 Y154.759 E2.90602
G1 X53.223 Y154.759 E3.32876
G1 X53.223 Y162.681 E3.80841
G1 X53.535 Y163.052 F7800.000
G1 F1200
G1 X45.930 Y163.052 E4.26891
G1 X45.930 Y154.448 E4.78996
G1 X53.535 Y154.448 E5.25045
G1 X53.535 Y162.992 E5.76786
G1 X53.150 Y162.941 F7800.000
G1 X52.790 Y162.550 F7800.000
G1 F1200
G1 X53.032 Y162.307 E5.78871
G1 X53.032 Y161.865 E5.81559
G1 X52.347 Y162.550 E5.87446
G1 X51.905 Y162.550 E5.90134
G1 X53.032 Y161.423 E5.99822
G1 X53.032 Y160.980 E6.02510
G1 X51.462 Y162.550 E6.15999
G1 X51.020 Y162.550 E6.18687
G1 X53.032 Y160.538 E6.35978
G1 X53.032 Y160.095 E6.38666
G1 X50.578 Y162.550 E6.59759
G1 X50.135 Y162.550 E6.62447
G1 X53.032 Y159.653 E6.87341
G1 X53.032 Y159.210 E6.90029
G1 X49.693 Y162.550 E7.18724
G1 X49.250 Y162.550 E7.21412
G1 X53.032 Y158.768 E7.53909
G1 X53.032 Y158.326 E7.56597
G1 X48.808 Y162.550 E7.92895
G1 X48.365 Y162.550 E7.95583
G1 X53.032 Y157.883 E8.35683
G1 X53.032 Y157.441 E8.38371
G1 X47.923 Y162.550 E8.82272
G1 X47.481 Y162.550 E8.84961
G1 X53.032 Y156.998 E9.32663
G1 X53.032 Y156.556 E9.35351
G1 X47.038 Y162.550 E9.86856
G1 X46.596 Y162.550 E9.89544
G1 X53.032 Y156.114 E10.44849
G1 X53.032 Y155.671 E10.47537
G1 X46.432 Y162.271 E11.04249
G1 X46.432 Y161.829 E11.06937
G1 X53.032 Y155.229 E11.63649
G1 X53.032 Y154.950 E11.65343
G1 X52.869 Y154.950 E11.66337
G1 X46.432 Y161.386 E12.21643
G1 X46.432 Y160.944 E12.24331
G1 X52.426 Y154.950 E12.75835
G1 X51.984 Y154.950 E12.78523
G1 X46.432 Y160.502 E13.26226
G1 X46.432 Y160.059 E13.28914
G1 X51.541 Y154.950 E13.72815
G1 X51.099 Y154.950 E13.75503
G1 X46.432 Y159.617 E14.15603
G1 X46.432 Y159.174 E14.18291
G1 X50.657 Y154.950 E14.54590
G1 X50.214 Y154.950 E14.57278
G1 X46.432 Y158.732 E14.89775
G1 X46.432 Y158.290 E14.92463
G1 X49.772 Y154.950 E15.21158
G1 X49.329 Y154.950 E15.23846
G1 X46.432 Y157.847 E15.48740
G1 X46.432 Y157.405 E15.51428
G1 X48.887 Y154.950 E15.72521
G1 X48.445 Y154.950 E15.75209
G1 X46.432 Y156.962 E15.92500
G1 X46.432 Y156.520 E15.95188
G1 X48.002 Y154.950 E16.08677
G1 X47.560 Y154.950 E16.11365
G1 X46.432 Y156.077 E16.21053
G1 X46.432 Y155.635 E16.23741
G1 X47.117 Y154.950 E16.29628
G1 X46.675 Y154.950 E16.32316
G1 X46.432 Y155.193 E16.34400
G1 E14.34400 F2400.00000
G92 E0
G1 X58.242 Y162.741 F7800.000
G1 E2.00000 F2400.00000
G1 F1200
G1 X58.242 Y154.759 E2.48329
G1 X65.223 Y154.759 E2.90602
G1 X65.223 Y162.741 E3.38931
G1 X58.302 Y162.741 E3.80841
G1 X57.930 Y163.052 F7800.000
G1 F1200
G1 X57.930 Y154.448 E4.32946
G1 X65.535 Y154.448 E4.78996
G1 X65.535 Y163.052 E5.31100
G1 X57.990 Y163.052 E5.76786
G1 X58.026 Y162.664 F7800.000
G1 E3.76786 F2400.00000
G92 E0
G1 X64.790 Y162.550 F7800.000
G1 E2.00000 F2400.00000
G1 F1200
G1 X65.032 Y162.307 E2.02085
G1 X65.032 Y161.865 E2.04773
G1 X64.347 Y162.550 E2.10660
G1 X63.905 Y162.550 E2.13348
G1 X65.032 Y161.423 E2.23036
G1 X65.032 Y160.980 E2.25724
G1 X63.462 Y162.550 E2.39213
G1 X63.020 Y162.550 E2.41901
G1 X65.032 Y160.538 E2.59192
G1 X65.032 Y160.095 E2.61880
G1 X62.578 Y162.550 E2.82972
G1 X62.135 Y162.550 E2.85660
G1 X65.032 Y159.653 E3.10554
G1 X65.032 Y159.210 E3.13242
G1 X61.693 Y162.550 E3.41938
G1 X61.250 Y162.550 E3.44626
G1 X65.032 Y158.768 E3.77123
G1 X65.032 Y158.326 E3.79811
G1 X60.808 Y162.550 E4.16109
G1 X60.365 Y162.550 E4.18797
G1 X65.032 Y157.883 E4.58897
G1 X65.032 Y157.441 E4.61585
G1 X59.923 Y162.550 E5.05486
G1 X59.481 Y162.550 E5.08174
G1 X65.032 Y156.998 E5.55877
G1 X65.032 Y156.556 E5.58565
G1 X59.038 Y162.550 E6.10069
G1 X58.596 Y162.550 E6.12757
G1 X65.032 Y156.114 E6.68063
G1 X65.032 Y155.671 E6.70751
G1 X58.432 Y162.271 E7.27463
G1 X58.432 Y161.829 E7.30151
G1 X65.032 Y155.229 E7.86862
G1 X65.032 Y154.950 E7.88556
G1 X64.869 Y154.950 E7.89550
G1 X58.432 Y161.386 E8.44856
G1 X58.432 Y160.944 E8.47544
G1 X64.426 Y154.950 E8.99048
G1 X63.984 Y154.950 E9.01737
G1 X58.432 Y160.502 E9.49439
G1 X58.432 Y160.059 E9.52127
G1 X63.541 Y154.950 E9.96029
G1 X63.099 Y154.950 E9.98717
G1 X58.432 Y159.617 E10.38817
G1 X58.432 Y159.174 E10.41505
G1 X62.657 Y154.950 E10.77803
G1 X62.214 Y154.950 E10.80491
G1 X58.432 Y158.732 E11.12988
G1 X58.432 Y158.290 E11.15676
G1 X61.772 Y154.950 E11.44372
G1 X61.329 Y154.950 E11.47060
G1 X58.432 Y157.847 E11.71954
G1 X58.432 Y157.405 E11.74642
G1 X60.887 Y154.950 E11.95734
G1 X60.445 Y154.950 E11.98422
G1 X58.432 Y156.962 E12.15713
G1 X58.432 Y156.520 E12.18401
G1 X60.002 Y154.950 E12.31891
G1 X59.560 Y154.950 E12.34579
G1 X58.432 Y156.077 E12.44267
G1 X58.432 Y155.635 E12.46955
G1 X59.117 Y154.950 E12.52842
G1 X58.675 Y154.950 E12.55530
G1 X58.432 Y155.193 E12.57613
M104 S211 ; set temperature
M140 S52 ; set bed temperature
G1 Z0.611 F7800.000
G1 E10.57613 F2400.00000
G92 E0
G1 X58.405 Y171.922 F7800.000
G1 E2.00000 F2400.00000
G1 F3600
G1 X58.405 Y166.922 E2.28292
G1 X65.060 Y166.922 E2.65950
G1 X65.060 Y174.578 E3.09267
G1 X57.560 Y174.578 E3.51706
G1 X57.560 Y182.078 E3.94144
G1 X48.869 Y182.078 E4.43324
G1 X48.869 Y178.422 E4.64006
G1 X53.905 Y178.422 E4.92503
G1 X53.905 Y174.578 E5.14259
G1 X46.405 Y174.578 E5.56698
G1 X46.405 Y166.922 E6.00014
G1 X53.060 Y166.922 E6.37672
G1 X53.060 Y171.922 E6.65965
G1 X58.345 Y171.922 E6.95869
G1 X57.952 Y171.470 F7800.000
G1 F1800
G1 X57.952 Y166.470 E7.17536
G1 X65.512 Y166.470 E7.50297
G1 X65.512 Y175.030 E7.87391
G1 X58.012 Y175.030 E8.19892
G1 X58.012 Y182.530 E8.52393
G1 X48.416 Y182.530 E8.93977
G1 X48.416 Y177.970 E9.13737
G1 X53.452 Y177.970 E9.35561
G1 X53.452 Y175.030 E9.48301
G1 X45.952 Y175.030 E9.80802
G1 X45.952 Y166.470 E10.17896
G1 X53.512 Y166.470 E10.50657
G1 X53.512 Y171.470 E10.72324
G1 X57.892 Y171.470 E10.91304
G1 X58.336 Y171.581 F7800.000
G1 X57.247 Y176.980 F7800.000
G1 F1200
G1 X54.218 Y173.951 E11.15800
G1 X54.218 Y174.683 E11.19988
G1 X57.247 Y177.712 E11.44484
G1 X57.247 Y178.445 E11.48672
G1 X54.218 Y175.416 E11.73168
G1 X54.218 Y176.148 E11.77357
G1 X57.247 Y179.177 E12.01852
G1 X57.247 Y179.909 E12.06041
G1 X54.218 Y176.880 E12.30536
G1 X54.218 Y177.613 E12.34725
G1 X57.247 Y180.642 E12.59221
G1 X57.247 Y181.374 E12.63409
G1 X54.218 Y178.345 E12.87905
G1 X54.218 Y178.736 E12.90136
G1 X53.876 Y178.736 E12.92093
G1 X56.905 Y181.764 E13.16589
G1 X56.172 Y181.764 E13.20777
G1 X53.143 Y178.736 E13.45273
G1 X52.411 Y178.736 E13.49461
G1 X55.440 Y181.764 E13.73957
G1 X54.707 Y181.764 E13.78146
G1 X51.678 Y178.736 E14.02641
G1 X50.946 Y178.736 E14.06830
G1 X53.975 Y181.764 E14.31326
G1 X53.242 Y181.764 E14.35514
G1 X50.214 Y178.736 E14.60010
G1 X49.481 Y178.736 E14.64198
G1 X52.510 Y181.764 E14.88694
G1 X51.778 Y181.764 E14.92882
G1 X49.182 Y179.168 E15.13877
G1 X49.182 Y179.901 E15.18065
G1 X51.045 Y181.764 E15.33137
G1 X50.313 Y181.764 E15.37325
G1 X49.182 Y180.633 E15.46473
G1 X49.182 Y181.366 E15.50662
G1 X49.580 Y181.764 E15.53885
G1 E13.53885 F2400.00000
G92 E0
G1 X47.116 Y174.174 F7800.000
G1 E2.00000 F2400.00000
G1 F1200
G1 X47.116 Y174.264 E2.00520
G1 X47.207 Y174.264 E2.01040
G1 X46.718 Y173.775 E2.04998
G1 X46.718 Y173.043 E2.09187
G1 X47.940 Y174.264 E2.19069
G1 X48.672 Y174.264 E2.23257
G1 X46.718 Y172.310 E2.39062
G1 X46.718 Y171.578 E2.43251
G1 X49.405 Y174.264 E2.64979
G1 X50.137 Y174.264 E2.69168
G1 X46.718 Y170.845 E2.96819
G1 X46.718 Y170.113 E3.01008
G1 X50.869 Y174.264 E3.34583
G1 X51.602 Y174.264 E3.38771
G1 X46.718 Y169.380 E3.78270
G1 X46.718 Y168.648 E3.82458
G1 X52.334 Y174.264 E4.27880
G1 X53.067 Y174.264 E4.32069
G1 X46.718 Y167.916 E4.83414
G1 X46.718 Y167.236 E4.87303
G1 X46.770 Y167.236 E4.87602
G1 X53.799 Y174.264 E5.44448
G1 X54.531 Y174.264 E5.48636
G1 X52.503 Y172.236 E5.65044
G1 X53.235 Y172.236 E5.69233
G1 X57.247 Y176.247 E6.01677
G1 X57.247 Y175.515 E6.05866
