G28 ; home all axes
G1 Z5 F5000 ; lift nozzle
G29 A; Activate UBL
G29 L1; Load the mesh stored in slot 1 (from G29 S1)
G29 J; Probe 3 points
G1 X2.0 Y2.0 Z0.0 F5000.0 ; go to edge of print area
G92 E0 ; Reset extruder length to zero
M190 S40; Set and wait for bed temperature
M109 S190; Set and wait for hotend temperature
G1 Z0.200 F1000.0 ; Go to Start Z position
G1 Y62.0 E9.0 F1000.0 ; intro line
G1 Y102.0 E21.5 F1000.0 ; intro line
G1 E20; small retract
G92 E0.0 ; reset extruder distance position
G1 Y200.0 Z0.95
G1 X20.0
G1 Z0.0
M190 R40
M109 R209
; generated by Slic3r 1.3.0 on 2021-01-11 at 21:25:52

; external perimeters extrusion width = 0.44mm (3.38mm^3/s)
; perimeters extrusion width = 0.48mm (7.54mm^3/s)
; infill extrusion width = 0.48mm (10.05mm^3/s)
; solid infill extrusion width = 0.48mm (2.51mm^3/s)
; top infill extrusion width = 0.48mm (1.88mm^3/s)

M107
M190 S40 ; set bed temperature and wait for it to be reached
M104 S209 ; set temperature

; Filament gcode

M109 S209 ; set temperature and wait for it to be reached
G21 ; set units to millimeters
G90 ; use absolute coordinates
M82 ; use absolute distances for extrusion
G92 E0
G1 Z0.361 F7800.000
G1 E-2.00000 F2400.00000
G92 E0
G1 X27.708 Y206.970 F7800.000
G1 E2.00000 F2400.00000
G1 F2940
G1 X31.272 Y210.534 E2.25982
G1 X31.272 Y211.272 E2.29788
G1 X30.534 Y211.272 E2.33594
G1 X26.970 Y207.708 E2.59576
G1 X22.406 Y212.272 E2.92848
G1 X7.728 Y212.272 E3.68508
G1 X7.728 Y192.594 E4.69942
G1 X12.594 Y187.728 E5.05418
G1 X32.272 Y187.728 E6.06852
G1 X32.272 Y202.406 E6.82512
G1 X27.751 Y206.927 E7.15475
G1 E5.15475 F2400.00000
G92 E0
G1 X30.747 Y211.041 F7800.000
G1 E2.00000 F2400.00000
G1 F2940
G1 X31.041 Y210.747 E2.02160
G1 X31.041 Y210.543 E2.03217
G1 X30.874 Y210.376 E2.04447
G1 X30.376 Y210.874 E2.08101
G1 X30.106 Y210.604 E2.10078
G1 X30.604 Y210.106 E2.13732
G1 X30.335 Y209.837 E2.15709
G1 X29.837 Y210.335 E2.19364
G1 X29.568 Y210.066 E2.21341
G1 X30.066 Y209.568 E2.24995
G1 X29.796 Y209.299 E2.26972
G1 X29.299 Y209.796 E2.30626
G1 X29.029 Y209.527 E2.32603
G1 X29.527 Y209.029 E2.36257
G1 X29.258 Y208.760 E2.38234
G1 X28.760 Y209.258 E2.41889
G1 X28.491 Y208.989 E2.43866
G1 X28.989 Y208.491 E2.47520
G1 X28.719 Y208.222 E2.49497
G1 X28.222 Y208.719 E2.53151
G1 X27.952 Y208.450 E2.55128
G1 X28.450 Y207.952 E2.58783
G1 X28.181 Y207.683 E2.60759
G1 X27.683 Y208.181 E2.64414
G1 X27.414 Y207.911 E2.66391
G1 X27.911 Y207.414 E2.70045
G1 X27.642 Y207.144 E2.72022
G1 X27.144 Y207.642 E2.75676
G1 X26.875 Y207.373 E2.77653
G1 X27.373 Y206.875 E2.81308
G1 X27.320 Y206.823 E2.81693
G1 X32.041 Y202.102 E3.16348
G1 X32.041 Y201.668 E3.18599
G1 X21.668 Y212.041 E3.94747
G1 X21.130 Y212.041 E3.97543
G1 X32.041 Y201.130 E4.77645
G1 X32.041 Y200.591 E4.80440
G1 X20.591 Y212.041 E5.64496
G1 X20.053 Y212.041 E5.67291
G1 X32.041 Y200.053 E6.55300
G1 X32.041 Y199.514 E6.58096
G1 X19.514 Y212.041 E7.50059
G1 X18.976 Y212.041 E7.52855
G1 X32.041 Y198.976 E8.48771
G1 X32.041 Y198.437 E8.51567
G1 X18.437 Y212.041 E9.51437
G1 X17.898 Y212.041 E9.54233
G1 X32.041 Y197.898 E10.58057
G1 X32.041 Y197.360 E10.60852
G1 X17.360 Y212.041 E11.68630
G1 X16.821 Y212.041 E11.71426
G1 X32.041 Y196.821 E12.83157
G1 X32.041 Y196.283 E12.85953
G1 X16.283 Y212.041 E14.01637
G1 X15.744 Y212.041 E14.04433
G1 X32.041 Y195.744 E15.24072
G1 X32.041 Y195.206 E15.26867
G1 X15.206 Y212.041 E16.50460
G1 X14.667 Y212.041 E16.53256
G1 X32.041 Y194.667 E17.80802
G1 X32.041 Y194.128 E17.83597
G1 X14.128 Y212.041 E19.15097
G1 X13.590 Y212.041 E19.17893
G1 X32.041 Y193.590 E20.53346
G1 X32.041 Y193.051 E20.56142
G1 X13.051 Y212.041 E21.95549
G1 X12.513 Y212.041 E21.98344
G1 X32.041 Y192.513 E23.41705
G1 X32.041 Y191.974 E23.44501
G1 X11.974 Y212.041 E24.91815
G1 X11.436 Y212.041 E24.94611
G1 X32.041 Y191.436 E26.45879
G1 X32.041 Y190.897 E26.48675
G1 X10.897 Y212.041 E28.03897
G1 X10.359 Y212.041 E28.06692
G1 X32.041 Y190.359 E29.65868
G1 X32.041 Y189.820 E29.68664
G1 X9.820 Y212.041 E31.31793
G1 X9.281 Y212.041 E31.34588
G1 X32.041 Y189.281 E33.01671
G1 X32.041 Y188.743 E33.04467
G1 X8.743 Y212.041 E34.75504
G1 X8.204 Y212.041 E34.78299
G1 X32.041 Y188.204 E36.53290
G1 X32.041 Y187.959 E36.54563
G1 X31.748 Y187.959 E36.56085
G1 X7.959 Y211.748 E38.30725
G1 X7.959 Y211.209 E38.33520
G1 X31.209 Y187.959 E40.04206
G1 X30.671 Y187.959 E40.07002
G1 X7.959 Y210.671 E41.73734
G1 X7.959 Y210.132 E41.76529
G1 X30.132 Y187.959 E43.39308
G1 X29.594 Y187.959 E43.42103
G1 X7.959 Y209.594 E45.00928
G1 X7.959 Y209.055 E45.03724
G1 X29.055 Y187.959 E46.58595
G1 X28.517 Y187.959 E46.61391
G1 X7.959 Y208.517 E48.12308
G1 X7.959 Y207.978 E48.15103
G1 X27.978 Y187.959 E49.62067
G1 X27.439 Y187.959 E49.64863
G1 X7.959 Y207.439 E51.07873
G1 X7.959 Y206.901 E51.10668
G1 X26.901 Y187.959 E52.49725
G1 X26.362 Y187.959 E52.52520
G1 X7.959 Y206.362 E53.87623
G1 X7.959 Y205.824 E53.90419
G1 X25.824 Y187.959 E55.21567
G1 X25.285 Y187.959 E55.24363
G1 X7.959 Y205.285 E56.51558
G1 X7.959 Y204.747 E56.54354
G1 X24.747 Y187.959 E57.77595
G1 X24.208 Y187.959 E57.80391
G1 X7.959 Y204.208 E58.99679
G1 X7.959 Y203.669 E59.02475
G1 X23.669 Y187.959 E60.17809
G1 X23.131 Y187.959 E60.20604
G1 X7.959 Y203.131 E61.31985
G1 X7.959 Y202.592 E61.34780
G1 X22.592 Y187.959 E62.42207
G1 X22.054 Y187.959 E62.45003
G1 X7.959 Y202.054 E63.48476
G1 X7.959 Y201.515 E63.51272
G1 X21.515 Y187.959 E64.50791
G1 X20.977 Y187.959 E64.53587
G1 X7.959 Y200.977 E65.49152
G1 X7.959 Y200.438 E65.51948
G1 X20.438 Y187.959 E66.43560
G1 X19.900 Y187.959 E66.46356
G1 X7.959 Y199.900 E67.34014
G1 X7.959 Y199.361 E67.36810
G1 X19.361 Y187.959 E68.20514
G1 X18.822 Y187.959 E68.23310
G1 X7.959 Y198.822 E69.03061
G1 X7.959 Y198.284 E69.05856
G1 X18.284 Y187.959 E69.81654
G1 X17.745 Y187.959 E69.84449
G1 X7.959 Y197.745 E70.56293
G1 X7.959 Y197.207 E70.59089
G1 X17.207 Y187.959 E71.26978
G1 X16.668 Y187.959 E71.29774
G1 X7.959 Y196.668 E71.93710
G1 X7.959 Y196.130 E71.96506
G1 X16.130 Y187.959 E72.56488
G1 X15.591 Y187.959 E72.59284
G1 X7.959 Y195.591 E73.15313
G1 X7.959 Y195.052 E73.18109
G1 X15.052 Y187.959 E73.70184
G1 X14.514 Y187.959 E73.72979
G1 X7.959 Y194.514 E74.21101
G1 X7.959 Y193.975 E74.23896
G1 X13.975 Y187.959 E74.68064
G1 X13.437 Y187.959 E74.70860
G1 X7.959 Y193.437 E75.11074
G1 X7.959 Y192.898 E75.13869
G1 X12.898 Y187.959 E75.50130
G1 Z0.661 F7800.000
G1 E73.50130 F2400.00000
G92 E0
G1 X27.719 Y206.970 F7800.000
G1 E2.00000 F2400.00000
G1 F1200.66
G1 X31.280 Y210.530 E2.21407
G1 X31.280 Y211.280 E2.24593
G1 X30.530 Y211.280 E2.27779
G1 X26.970 Y207.719 E2.49186
G1 X22.409 Y212.280 E2.76605
G1 X7.720 Y212.280 E3.39047
G1 X7.720 Y192.591 E4.22745
G1 X12.591 Y187.720 E4.52029
G1 X32.280 Y187.720 E5.35727
G1 X32.280 Y202.409 E5.98169
G1 X27.762 Y206.927 E6.25333
G1 E4.25333 F2400.00000
G92 E0
; Filament-specific end gcode 
;END gcode for filament


M104 S0 ; set temperature
M140 S0 ; set bed temperature
; filament used = 82.9mm (0.2cm3)
; total filament cost = 0.0

; avoid_crossing_perimeters = 0
; bed_shape = 0x0,220x0,220x220,0x220
; bed_temperature = 40
; before_layer_gcode = 
; between_objects_gcode = 
; bridge_acceleration = 0
; bridge_fan_speed = 100
; brim_connections_width = 0
; brim_width = 0
; complete_objects = 0
; cooling = 1
; default_acceleration = 0
; disable_fan_first_layers = 3
; duplicate_distance = 6
; end_filament_gcode = "; Filament-specific end gcode \n;END gcode for filament\n"
; end_gcode = 
; extruder_clearance_height = 20
; extruder_clearance_radius = 20
; extruder_offset = 0x0
; extrusion_axis = E
; extrusion_multiplier = 0.907377
; fan_always_on = 0
; fan_below_layer_time = 60
; filament_colour = #FFFFFF
; filament_cost = 0
; filament_density = 0
; filament_diameter = 1.75
; filament_max_volumetric_speed = 0
; filament_notes = ""
; first_layer_acceleration = 0
; first_layer_bed_temperature = 40
; first_layer_extrusion_width = 0.455704
; first_layer_speed = 49
; first_layer_temperature = 209
; gcode_arcs = 0
; gcode_comments = 0
; gcode_flavor = reprap
; has_heatbed = 1
; infill_acceleration = 0
; infill_first = 0
; interior_brim_width = 0
; layer_gcode = 
; max_fan_speed = 100
; max_layer_height = 0.3
; max_print_speed = 120
; max_volumetric_speed = 0
; min_fan_speed = 35
; min_layer_height = 0.15
; min_print_speed = 5
; min_skirt_length = 0
; notes = 
; nozzle_diameter = 0.4
; only_retract_when_crossing_perimeters = 1
; ooze_prevention = 0
; output_filename_format = [input_filename_base].gcode
; perimeter_acceleration = 0
; post_process = 
; pressure_advance = 0
; printer_notes = 
; resolution = 0
; retract_before_travel = 2
; retract_layer_change = 0
; retract_length = 2
; retract_length_toolchange = 10
; retract_lift = 0
; retract_lift_above = 0
; retract_lift_below = 0
; retract_restart_extra = 0
; retract_restart_extra_toolchange = 0
; retract_speed = 40
; skirt_distance = 6
; skirt_height = 1
; skirts = 0
; slowdown_below_layer_time = 5
; spiral_vase = 0
; standby_temperature_delta = -5
; start_filament_gcode = "; Filament gcode\n"
; start_gcode = 
; temperature = 209
; threads = 8
; toolchange_gcode = 
; travel_speed = 130
; use_firmware_retraction = 0
; use_relative_e_distances = 0
; use_set_and_wait_bed = 0
; use_set_and_wait_extruder = 0
; use_volumetric_e = 0
; vibration_limit = 0
; wipe = 0
; z_offset = 0
; z_steps_per_mm = 0
; adaptive_slicing = 0
; adaptive_slicing_quality = 75%
; dont_support_bridges = 1
; extrusion_width = 0
; first_layer_height = 0.361334
; infill_only_where_needed = 0
; interface_shells = 0
; layer_height = 0.3
; match_horizontal_surfaces = 0
; raft_layers = 0
; regions_overlap = 0
; seam_position = aligned
; sequential_print_priority = 0
; support_material = 0
; support_material_angle = 0
; support_material_buildplate_only = 0
; support_material_contact_distance = 0.2
; support_material_enforce_layers = 0
; support_material_extruder = 1
; support_material_extrusion_width = 0
; support_material_interface_extruder = 1
; support_material_interface_extrusion_width = 0
; support_material_interface_layers = 3
; support_material_interface_spacing = 0
; support_material_interface_speed = 100%
; support_material_max_layers = 0
; support_material_pattern = pillars
; support_material_spacing = 2.5
; support_material_speed = 60
; support_material_threshold = 60%
; xy_size_compensation = 0
; bottom_infill_pattern = rectilinear
; bottom_solid_layers = 1
; bridge_flow_ratio = 1
; bridge_speed = 60
; external_perimeter_extrusion_width = 0
; external_perimeter_speed = 50%
; external_perimeters_first = 0
; extra_perimeters = 1
; fill_angle = 45
; fill_density = 0%
; fill_gaps = 1
; fill_pattern = stars
; gap_fill_speed = 20
; infill_every_layers = 1
; infill_extruder = 1
; infill_extrusion_width = 0
; infill_overlap = 55%
; infill_speed = 80
; overhangs = 1
; perimeter_extruder = 1
; perimeter_extrusion_width = 0
; perimeter_speed = 60
; perimeters = 1
; small_perimeter_speed = 15
; solid_infill_below_area = 70
; solid_infill_every_layers = 0
; solid_infill_extruder = 1
; solid_infill_extrusion_width = 0
; solid_infill_speed = 20
; thin_walls = 1
; top_infill_extrusion_width = 0
; top_infill_pattern = rectilinear
; top_solid_infill_speed = 15
; top_solid_layers = 0
G1 Y200.0 Z0.95
G1 X50.0
G1 Z0.0
M190 R41
M109 R192
; generated by Slic3r 1.3.0 on 2021-01-11 at 21:25:53

; external perimeters extrusion width = 0.44mm (3.38mm^3/s)
; perimeters extrusion width = 0.48mm (7.54mm^3/s)
; infill extrusion width = 0.48mm (10.05mm^3/s)
; solid infill extrusion width = 0.48mm (2.51mm^3/s)
; top infill extrusion width = 0.48mm (1.88mm^3/s)

M107
M190 S41 ; set bed temperature and wait for it to be reached
M104 S192 ; set temperature

; Filament gcode

M109 S192 ; set temperature and wait for it to be reached
G21 ; set units to millimeters
G90 ; use absolute coordinates
M82 ; use absolute distances for extrusion
G92 E0
G1 Z0.323 F7800.000
G1 E-2.00000 F2400.00000
G92 E0
G1 X57.387 Y206.970 F7800.000
G1 E2.00000 F2400.00000
G1 F1560
G1 X61.045 Y210.628 E2.66765
G1 X61.045 Y211.045 E2.72152
G1 X60.628 Y211.045 E2.77538
G1 X56.970 Y207.387 E3.44304
G1 X52.312 Y212.045 E4.29320
G1 X37.955 Y212.045 E6.14604
G1 X37.955 Y192.688 E8.64416
G1 X42.688 Y187.955 E9.50810
G1 X62.045 Y187.955 E12.00623
G1 X62.045 Y202.312 E13.85906
G1 X57.429 Y206.927 E14.70149
G1 E12.70149 F2400.00000
G92 E0
G1 X51.636 Y211.532 F7800.000
G1 E2.00000 F2400.00000
G1 F1560
G1 X61.532 Y201.636 E3.83136
G1 X61.532 Y200.431 E3.98909
G1 X50.431 Y211.532 E6.04350
G1 X49.226 Y211.532 E6.20123
G1 X61.532 Y199.226 E8.47871
G1 X61.532 Y198.021 E8.63644
G1 X48.021 Y211.532 E11.13699
G1 X46.816 Y211.532 E11.29471
G1 X61.532 Y196.816 E14.01832
G1 X61.532 Y195.610 E14.17605
G1 X45.610 Y211.532 E17.12271
G1 X44.405 Y211.532 E17.28044
G1 X61.532 Y194.405 E20.45017
G1 X61.532 Y193.200 E20.60790
G1 X43.200 Y211.532 E24.00069
G1 X41.995 Y211.532 E24.15842
G1 X61.532 Y191.995 E27.77427
G1 X61.532 Y190.789 E27.93200
G1 X40.789 Y211.532 E31.77091
G1 X39.584 Y211.532 E31.92864
G1 X61.532 Y189.584 E35.99061
G1 X61.532 Y188.468 E36.13663
G1 X61.442 Y188.468 E36.14834
G1 X38.468 Y211.442 E40.40024
G1 X38.468 Y210.237 E40.55797
G1 X60.237 Y188.468 E44.58681
G1 X59.032 Y188.468 E44.74454
G1 X38.468 Y209.032 E48.55031
G1 X38.468 Y207.826 E48.70804
G1 X57.826 Y188.468 E52.29076
G1 X56.621 Y188.468 E52.44848
G1 X38.468 Y206.621 E55.80814
G1 X38.468 Y205.416 E55.96587
G1 X55.416 Y188.468 E59.10246
G1 X54.211 Y188.468 E59.26019
G1 X38.468 Y204.211 E62.17372
G1 X38.468 Y203.005 E62.33144
G1 X53.005 Y188.468 E65.02191
G1 X51.800 Y188.468 E65.17964
G1 X38.468 Y201.800 E67.64705
G1 X38.468 Y200.595 E67.80478
G1 X50.595 Y188.468 E70.04912
G1 X49.390 Y188.468 E70.20685
G1 X38.468 Y199.390 E72.22813
G1 X38.468 Y198.184 E72.38586
G1 X48.184 Y188.468 E74.18408
G1 X46.979 Y188.468 E74.34181
G1 X38.468 Y196.979 E75.91697
G1 X38.468 Y195.774 E76.07470
G1 X45.774 Y188.468 E77.42679
G1 X44.569 Y188.468 E77.58452
G1 X38.468 Y194.569 E78.71356
G1 X38.468 Y193.364 E78.87129
G1 X43.364 Y188.468 E79.77726
G1 Z0.623 F7800.000
G1 E77.77726 F2400.00000
G92 E0
G1 X57.719 Y206.970 F7800.000
G1 E2.00000 F2400.00000
G1 F1200.66
G1 X61.280 Y210.530 E2.26973
G1 X61.280 Y211.280 E2.30988
G1 X60.530 Y211.280 E2.35003
G1 X56.970 Y207.719 E2.61976
G1 X52.409 Y212.280 E2.96524
G1 X37.720 Y212.280 E3.75202
G1 X37.720 Y192.591 E4.80662
G1 X42.591 Y187.720 E5.17561
G1 X62.280 Y187.720 E6.23021
G1 X62.280 Y202.409 E7.01699
G1 X57.762 Y206.927 E7.35926
G1 E5.35926 F2400.00000
G92 E0
; Filament-specific end gcode 
;END gcode for filament


M104 S0 ; set temperature
M140 S0 ; set bed temperature
; filament used = 95.8mm (0.2cm3)
; total filament cost = 0.0

; avoid_crossing_perimeters = 0
; bed_shape = 0x0,220x0,220x220,0x220
; bed_temperature = 41
; before_layer_gcode = 
; between_objects_gcode = 
; bridge_acceleration = 0
; bridge_fan_speed = 100
; brim_connections_width = 0
; brim_width = 0
; complete_objects = 0
; cooling = 1
; default_acceleration = 0
; disable_fan_first_layers = 3
; duplicate_distance = 6
; end_filament_gcode = "; Filament-specific end gcode \n;END gcode for filament\n"
; end_gcode = 
; extruder_clearance_height = 20
; extruder_clearance_radius = 20
; extruder_offset = 0x0
; extrusion_axis = E
; extrusion_multiplier = 1.14331
; fan_always_on = 0
; fan_below_layer_time = 60
; filament_colour = #FFFFFF
; filament_cost = 0
; filament_density = 0
; filament_diameter = 1.75
; filament_max_volumetric_speed = 0
; filament_notes = ""
; first_layer_acceleration = 0
; first_layer_bed_temperature = 41
; first_layer_extrusion_width = 0.909756
; first_layer_speed = 26
; first_layer_temperature = 192
; gcode_arcs = 0
; gcode_comments = 0
; gcode_flavor = reprap
; has_heatbed = 1
; infill_acceleration = 0
; infill_first = 0
; interior_brim_width = 0
; layer_gcode = 
; max_fan_speed = 100
; max_layer_height = 0.3
; max_print_speed = 120
; max_volumetric_speed = 0
; min_fan_speed = 35
; min_layer_height = 0.15
; min_print_speed = 5
; min_skirt_length = 0
; notes = 
; nozzle_diameter = 0.4
