; generated by PrusaSlicer 2.3.0+linux-x64-GTK3 on 2021-03-20 at 13:04:30 UTC

; 

; external perimeters extrusion width = 0.70mm
; perimeters extrusion width = 0.70mm
; infill extrusion width = 0.70mm
; solid infill extrusion width = 0.70mm
; top infill extrusion width = 0.70mm
; support material extrusion width = 0.70mm
; first layer extrusion width = 0.79mm

M107
M190 S54 ; set bed temperature and wait for it to be reached
M104 S207 ; set temperature
;TYPE:Custom
G28 ; home all axes
G1 Z5 F5000 ; lift nozzle
G29 L1; Load the mesh stored in slot 1 (from G29 S1)
G29 J; No size specified on the J option tells G29 to probe the specified 3 points and tilt the mesh according to what it finds.
G1 X0.0 Y0.0 F5000.0 ; go to edge of print area
G92 E0 ; Reset extruder length to zero
G1 Z0.200 F1000.0 ; Go to Start Z position
G1 Y60.0 E9.0 F1000.0 ; intro line
G1 Y100.0 E21.5 F1000.0 ; intro line
G1 E20; small retract
G92 E0.0 ; reset extruder distance position



M109 S207 ; set temperature and wait for it to be reached
G21 ; set units to millimeters
G90 ; use absolute coordinates
M82 ; use absolute distances for extrusion
G92 E0
; Filament gcode
;LAYER_CHANGE
;Z:0.38
;HEIGHT:0.38
G1 Z0.380 F7800.000
G1 E-3.67000 F6000.000
G92 E0
G1 Z0.680 F7800.000
G1 X99.537 Y95.328
G1 Z0.380
G1 E3.67000 F1800.000
;TYPE:Skirt
;WIDTH:0.79
G1 F2380
G1 X100.420 Y94.533 E3.79630
G1 X101.392 Y93.836 E3.92346
G1 X102.436 Y93.252 E4.05061
G1 X103.538 Y92.788 E4.17777
G1 X105.072 Y92.367 E4.34696
G1 X106.644 Y92.178 E4.51529
G1 X117.142 Y92.167 E5.63153
G1 X118.721 Y92.285 E5.79986
G1 X120.265 Y92.634 E5.96819
G1 X121.740 Y93.208 E6.13653
G1 X123.108 Y93.988 E6.30400
G1 X124.347 Y94.961 E6.47147
G1 X125.435 Y96.111 E6.63980
G1 X126.342 Y97.409 E6.80813
G1 X127.047 Y98.826 E6.97647
G1 X127.631 Y100.758 E7.19105
G1 X127.842 Y102.757 E7.40478
G1 X127.833 Y113.828 E8.58193
G1 X127.652 Y115.384 E8.74854
G1 X127.244 Y116.905 E8.91602
G1 X126.818 Y117.945 E9.03545
G1 X126.286 Y118.934 E9.15488
G1 X125.654 Y119.862 E9.27431
G1 X124.927 Y120.719 E9.39375
G1 X120.406 Y125.210 E10.07131
G1 X119.199 Y126.117 E10.23192
G1 X117.875 Y126.846 E10.39254
G1 X116.878 Y127.247 E10.50682
G1 X115.838 Y127.548 E10.62196
G1 X114.773 Y127.743 E10.73710
G1 X113.702 Y127.829 E10.85138
G1 X107.707 Y127.809 E11.48877
G1 X106.282 Y127.617 E11.64167
G1 X104.896 Y127.235 E11.79457
G1 X103.430 Y126.596 E11.96461
G1 X102.068 Y125.742 E12.13551
G1 X100.856 Y124.699 E12.30556
G1 X99.808 Y123.480 E12.47646
G1 X99.101 Y122.389 E12.61478
G1 X98.531 Y121.219 E12.75309
G1 X96.828 Y116.285 E13.30805
G1 X96.549 Y114.998 E13.44808
G1 X96.430 Y113.695 E13.58725
G1 X96.426 Y102.754 E14.75060
G1 X96.586 Y101.025 E14.93521
G1 X97.024 Y99.345 E15.11983
G1 X97.481 Y98.239 E15.24698
G1 X98.058 Y97.192 E15.37414
G1 X98.748 Y96.215 E15.50130
G1 X99.497 Y95.373 E15.62122
G1 E11.95122 F6000.000
G92 E0
G1 Z0.680 F7800.000
G1 X108.337 Y110.078
G1 Z0.380
G1 E3.67000 F1800.000
;TYPE:Perimeter
G1 F2380
G1 X109.930 Y110.078 E3.83939
G1 X109.930 Y112.172 E4.06195
G1 X108.337 Y112.172 E4.23134
G1 X108.337 Y110.138 E4.44752
G1 E0.77752 F6000.000
G92 E0
G1 Z0.680 F7800.000
G1 X110.780 Y111.729
G1 X113.488 Y111.729
G1 X114.337 Y110.138
G1 Z0.380
G1 E3.67000 F1800.000
G1 F2380
G1 X114.337 Y110.078 E3.67638
G1 X115.930 Y110.078 E3.84577
G1 X115.930 Y112.172 E4.06833
G1 X114.337 Y112.172 E4.23772
G1 X114.337 Y110.198 E4.44752
G1 E0.77752 F6000.000
G92 E0
G1 Z0.680 F7800.000
G1 X113.488 Y111.729
G1 X110.639 Y111.870
G1 Z0.380
G1 E3.67000 F1800.000
;TYPE:External perimeter
G1 F2380
G1 X113.629 Y111.870 E3.98792
G1 X113.629 Y109.370 E4.25375
G1 X116.639 Y109.370 E4.57380
G1 X116.639 Y112.880 E4.94701
G1 X112.889 Y112.880 E5.34574
G1 X112.889 Y116.630 E5.74448
G1 X108.921 Y116.630 E6.16636
G1 X108.921 Y115.120 E6.32692
G1 X111.379 Y115.120 E6.58825
G1 X111.379 Y112.880 E6.82643
G1 X107.629 Y112.880 E7.22516
G1 X107.629 Y109.370 E7.59838
G1 X110.639 Y109.370 E7.91843
G1 X110.639 Y111.810 E8.17787
G1 X110.754 Y112.253 F7800.000
G1 X110.285 Y112.375
;TYPE:Gap fill
;WIDTH:0.383099
G1 F2380
G1 X111.733 Y112.375 E8.24342
;WIDTH:0.426177
G1
G1 X111.848 Y112.432 E8.25005
;WIDTH:0.469255
G1
G1 X111.962 Y112.490 E8.25750
;WIDTH:0.512334
G1
G1 X112.077 Y112.547 E8.26577
;WIDTH:0.555412
G1
G1 X112.191 Y112.604 E8.27488
;WIDTH:0.59849
G1
G1 X112.306 Y112.661 E8.28481
;WIDTH:0.641568
G1
G1 X112.420 Y112.719 E8.29557
;WIDTH:0.684647
G1
G1 X112.535 Y112.776 E8.30716
G1 X113.983 Y112.375 F7800.000
;WIDTH:0.383099
G1 F2380
G1 X112.535 Y112.375 E8.37271
G1 X112.191 Y112.547 E8.39010
;WIDTH:0.555411
G1
G1 X111.733 Y112.776 E8.42652
G1 X112.134 Y112.224 F7800.000
;WIDTH:0.883099
G1 F2380
G1 X112.134 Y115.474 E8.81750
G1 X112.088 Y115.696 E8.84469
;WIDTH:1.02062
G1
G1 X112.065 Y115.806 E8.86062
;WIDTH:1.02062
G1
G1 X111.954 Y115.829 E8.87655
;WIDTH:0.974781
G1
G1 X111.844 Y115.852 E8.89170
;WIDTH:0.92894
G1
G1 X111.733 Y115.875 E8.90607
;WIDTH:0.883097
G1
G1 X109.275 Y115.875 E9.20175
G1 E5.53175 F6000.000
G92 E0
G1 Z0.680 F7800.000
G1 X111.238 Y114.979
G1 X111.238 Y113.021
G1 X109.724 Y109.229
G1 X109.930 Y106.172
G1 Z0.380
G1 E3.67000 F1800.000
;TYPE:Perimeter
;WIDTH:0.79
G1 F2380
G1 X108.337 Y106.172 E3.83939
G1 X108.337 Y104.078 E4.06195
G1 X109.930 Y104.078 E4.23134
G1 X109.930 Y106.112 E4.44752
G1 X110.639 Y106.880 F7800.000
;TYPE:External perimeter
G1 F2380
G1 X107.629 Y106.880 E4.76757
G1 X107.629 Y103.370 E5.14078
G1 X110.639 Y103.370 E5.46083
G1 X110.639 Y106.820 E5.82767
G1 X110.255 Y106.767 F7800.000
G1 E2.15767 F6000.000
G92 E0
G1 Z0.680 F7800.000
G1 X110.780 Y106.795
G1 X114.337 Y106.172
G1 Z0.380
G1 E3.67000 F1800.000
;TYPE:Perimeter
G1 F2380
G1 X114.337 Y104.078 E3.89256
G1 X115.930 Y104.078 E4.06195
G1 X115.930 Y106.172 E4.28451
G1 X114.397 Y106.172 E4.44752
G1 X113.629 Y106.880 F7800.000
;TYPE:External perimeter
G1 F2380
G1 X113.629 Y103.370 E4.82073
G1 X116.639 Y103.370 E5.14078
G1 X116.639 Y106.880 E5.51400
G1 X113.689 Y106.880 E5.82767
G1 X113.723 Y106.491 F7800.000
M106 S255
;LAYER_CHANGE
;Z:0.6
;HEIGHT:0.22
G1 Z0.600 F7800.000
M104 S190 ; set temperature
M140 S55 ; set bed temperature
G1 X114.137 Y106.372
;TYPE:Perimeter
;WIDTH:0.7
G1 F1290.000
G1 X114.137 Y103.878 E5.96916
G1 X116.131 Y103.878 E6.08228
G1 X116.131 Y106.372 E6.22377
G1 X114.197 Y106.372 E6.33350
G1 X113.484 Y103.225 F7800.000
;TYPE:External perimeter
G1 F1290.000
G1 X116.784 Y103.225 E6.52068
G1 X116.784 Y107.025 E6.73623
G1 X113.484 Y107.025 E6.92341
G1 X113.484 Y103.285 E7.13555
G1 X113.868 Y103.338 F7800.000
G1 X114.562 Y106.176
;TYPE:Solid infill
;WIDTH:0.725353
G1 F1200.000
G1 X115.642 Y105.097 E7.22551
G1 X115.642 Y104.367 E7.26850
G1 X115.412 Y104.367 E7.28203
G1 X114.332 Y105.447 E7.37198
G1 E3.70198 F6000.000
G92 E0
G1 Z0.900 F7800.000
G1 X113.460 Y105.639
G1 X110.131 Y106.372
G1 Z0.600
G1 E3.67000 F1800.000
;TYPE:Perimeter
;WIDTH:0.7
G1 F1290.000
G1 X108.137 Y106.372 E3.78313
G1 X108.137 Y103.878 E3.92462
G1 X110.131 Y103.878 E4.03775
G1 X110.131 Y106.312 E4.17583
G1 X107.484 Y103.225 F7800.000
;TYPE:External perimeter
G1 F1290.000
G1 X110.784 Y103.225 E4.36301
G1 X110.784 Y107.025 E4.57856
G1 X107.484 Y107.025 E4.76574
G1 X107.484 Y103.285 E4.97788
G1 X107.868 Y103.338 F7800.000
G1 X108.562 Y106.176
;TYPE:Solid infill
;WIDTH:0.725353
G1 F1200.000
G1 X109.642 Y105.097 E5.06785
G1 X109.642 Y104.367 E5.11083
G1 X109.412 Y104.367 E5.12436
G1 X108.332 Y105.447 E5.21431
G1 E1.54431 F6000.000
G92 E0
G1 Z0.900 F7800.000
G1 X108.332 Y107.049
G1 X108.332 Y109.878
G1 Z0.600
G1 E3.67000 F1800.000
;TYPE:Perimeter
;WIDTH:0.7
G1 F1290.000
G1 X110.131 Y109.878 E3.77202
G1 X110.131 Y112.372 E3.91351
G1 X108.137 Y112.372 E4.02664
G1 X108.137 Y109.878 E4.16813
G1 X108.272 Y109.878 E4.17583
G1 X111.887 Y112.378 F7800.000
G1 F1290.000
G1 X112.381 Y112.378 E4.20388
G1 X112.381 Y116.122 E4.41627
G1 X109.129 Y116.122 E4.60074
G1 X109.129 Y115.628 E4.62878
G1 X111.887 Y115.628 E4.78521
G1 X111.887 Y112.438 E4.96615
G1 X114.137 Y112.372 F7800.000
G1 F1290.000
G1 X114.137 Y109.878 E5.10764
G1 X116.131 Y109.878 E5.22077
G1 X116.131 Y112.372 E5.36226
G1 X114.197 Y112.372 E5.47198
G1 X110.784 Y111.725 F7800.000
;TYPE:External perimeter
G1 F1500
G1 X113.484 Y111.725 E5.62513
G1 X113.484 Y109.225 E5.76694
G1 X116.784 Y109.225 E5.95412
G1 X116.784 Y113.025 E6.16967
G1 X113.034 Y113.025 E6.38237
G1 X113.034 Y116.775 E6.59508
G1 X108.476 Y116.775 E6.85361
G1 X108.476 Y114.975 E6.95571
G1 X111.234 Y114.975 E7.11213
G1 X111.234 Y113.025 E7.22274
G1 X107.484 Y113.025 E7.43545
G1 X107.484 Y109.225 E7.65099
G1 X110.784 Y109.225 E7.83818
G1 X110.784 Y111.665 E7.97658
G1 X110.905 Y112.106 F7800.000
G1 X108.562 Y112.176
;TYPE:Solid infill
;WIDTH:0.725353
G1 F1200.000
G1 X109.642 Y111.097 E8.06654
G1 X109.642 Y110.367 E8.10953
G1 X109.412 Y110.367 E8.12306
G1 X108.332 Y111.447 E8.21301
G1 X114.332 Y111.447 F7800.000
G1 F1200.000
G1 X115.412 Y110.367 E8.30296
G1 X115.642 Y110.367 E8.31649
G1 X115.642 Y111.097 E8.35947
G1 X114.562 Y112.176 E8.44944
;LAYER_CHANGE
;Z:0.82
;HEIGHT:0.22
G1 Z0.820 F7800.000
G1 E4.77944 F6000.000
G92 E0
G1 Z1.120 F7800.000
G1 X114.344 Y109.201
G1 X114.137 Y106.372
G1 Z0.820
G1 E3.67000 F1800.000
;TYPE:Perimeter
;WIDTH:0.7
G1 F1290.000
G1 X114.137 Y103.878 E3.81149
G1 X116.131 Y103.878 E3.92462
G1 X116.131 Y106.372 E4.06611
G1 X114.197 Y106.372 E4.17583
G1 X113.484 Y103.225 F7800.000
;TYPE:External perimeter
G1 F1290.000
G1 X116.784 Y103.225 E4.36301
G1 X116.784 Y107.025 E4.57856
G1 X113.484 Y107.025 E4.76574
G1 X113.484 Y103.285 E4.97788
G1 X113.868 Y103.338 F7800.000
G1 X115.706 Y106.176
;TYPE:Solid infill
;WIDTH:0.725353
G1 F1200.000
G1 X114.626 Y105.097 E5.06784
G1 X114.626 Y104.367 E5.11083
G1 X114.856 Y104.367 E5.12435
G1 X115.935 Y105.447 E5.21431
G1 E1.54431 F6000.000
G92 E0
G1 Z1.120 F7800.000
G1 X113.460 Y105.841
G1 X110.131 Y106.372
G1 Z0.820
G1 E3.67000 F1800.000
;TYPE:Perimeter
;WIDTH:0.7
G1 F1290.000
G1 X108.137 Y106.372 E3.78313
G1 X108.137 Y103.878 E3.92462
G1 X110.131 Y103.878 E4.03775
G1 X110.131 Y106.312 E4.17583
G1 X107.484 Y103.225 F7800.000
;TYPE:External perimeter
G1 F1290.000
G1 X110.784 Y103.225 E4.36301
G1 X110.784 Y107.025 E4.57856
G1 X107.484 Y107.025 E4.76574
G1 X107.484 Y103.285 E4.97788
G1 X107.868 Y103.338 F7800.000
G1 X109.706 Y106.176
;TYPE:Solid infill
;WIDTH:0.725352
G1 F1200.000
G1 X108.626 Y105.097 E5.06784
G1 X108.626 Y104.367 E5.11083
G1 X108.856 Y104.367 E5.12435
G1 X109.935 Y105.447 E5.21431
G1 E1.54431 F6000.000
G92 E0
G1 Z1.120 F7800.000
G1 X109.935 Y107.049
G1 X109.935 Y109.878
G1 Z0.820
G1 E3.67000 F1800.000
;TYPE:Perimeter
;WIDTH:0.7
G1 F1290.000
G1 X110.131 Y109.878 E3.68111
G1 X110.131 Y112.372 E3.82260
G1 X108.137 Y112.372 E3.93572
G1 X108.137 Y109.878 E4.07721
G1 X109.875 Y109.878 E4.17583
G1 X111.887 Y112.378 F7800.000
G1 F1290.000
G1 X112.381 Y112.378 E4.20388
G1 X112.381 Y116.122 E4.41627
G1 X108.909 Y116.122 E4.61322
G1 X108.909 Y115.628 E4.64126
G1 X111.887 Y115.628 E4.81017
G1 X111.887 Y112.438 E4.99111
G1 X114.137 Y112.372 F7800.000
G1 F1290.000
G1 X114.137 Y109.878 E5.13260
G1 X116.131 Y109.878 E5.24573
G1 X116.131 Y112.372 E5.38722
G1 X114.197 Y112.372 E5.49694
G1 X110.784 Y111.725 F7800.000
;TYPE:External perimeter
G1 F1500
G1 X113.484 Y111.725 E5.65009
G1 X113.484 Y109.225 E5.79190
G1 X116.784 Y109.225 E5.97908
G1 X116.784 Y113.025 E6.19462
G1 X113.034 Y113.025 E6.40733
G1 X113.034 Y116.775 E6.62004
G1 X108.256 Y116.775 E6.89104
G1 X108.256 Y114.975 E6.99314
G1 X111.234 Y114.975 E7.16205
G1 X111.234 Y113.025 E7.27266
G1 X107.484 Y113.025 E7.48537
G1 X107.484 Y109.225 E7.70091
G1 X110.784 Y109.225 E7.88809
G1 X110.784 Y111.665 E8.02649
G1 X110.905 Y112.106 F7800.000
G1 X109.935 Y111.447
;TYPE:Solid infill
;WIDTH:0.725353
G1 F1200.000
G1 X108.856 Y110.367 E8.11646
G1 X108.626 Y110.367 E8.12998
G1 X108.626 Y111.097 E8.17297
G1 X109.706 Y112.176 E8.26292
G1 X115.706 Y112.176 F7800.000
G1 F1200.000
G1 X114.626 Y111.097 E8.35288
G1 X114.626 Y110.367 E8.39587
G1 X114.856 Y110.367 E8.40939
G1 X115.935 Y111.447 E8.49935
;LAYER_CHANGE
;Z:1.04
;HEIGHT:0.22
G1 Z1.040 F7800.000
G1 E4.82935 F6000.000
G92 E0
G1 Z1.340 F7800.000
G1 X115.935 Y109.201
G1 X115.935 Y106.372
G1 Z1.040
G1 E3.67000 F1800.000
;TYPE:Perimeter
;WIDTH:0.7
G1 F1290.000
G1 X114.137 Y106.372 E3.77202
G1 X114.137 Y103.878 E3.91351
G1 X116.131 Y103.878 E4.02664
G1 X116.131 Y106.372 E4.16813
G1 X115.995 Y106.372 E4.17583
G1 E0.50583 F6000.000
G92 E0
G1 Z1.340 F7800.000
G1 X113.484 Y103.225
G1 Z1.040
G1 E3.67000 F1800.000
;TYPE:External perimeter
G1 F1290.000
G1 X116.784 Y103.225 E3.85718
G1 X116.784 Y107.025 E4.07273
G1 X113.484 Y107.025 E4.25991
G1 X113.484 Y103.285 E4.47205
G1 X113.868 Y103.338 F7800.000
G1 E0.80205 F6000.000
G92 E0
G1 Z1.340 F7800.000
G1 X114.562 Y106.176
G1 Z1.040
G1 E3.67000 F1800.000
;TYPE:Solid infill
;WIDTH:0.725346
G1 F1200.000
G1 X115.642 Y105.097 E3.75996
G1 X115.642 Y104.367 E3.80295
G1 X115.412 Y104.367 E3.81647
G1 X114.332 Y105.447 E3.90642
G1 E0.23642 F6000.000
G92 E0
G1 Z1.340 F7800.000
G1 X113.460 Y105.639
G1 X110.131 Y106.372
G1 Z1.040
G1 E3.67000 F1800.000
;TYPE:Perimeter
;WIDTH:0.7
G1 F1290.000
G1 X108.137 Y106.372 E3.78313
G1 X108.137 Y103.878 E3.92462
G1 X110.131 Y103.878 E4.03775
G1 X110.131 Y106.312 E4.17583
G1 E0.50583 F6000.000
G92 E0
G1 Z1.340 F7800.000
G1 X107.484 Y103.225
G1 Z1.040
G1 E3.67000 F1800.000
;TYPE:External perimeter
G1 F1290.000
G1 X110.784 Y103.225 E3.85718
G1 X110.784 Y107.025 E4.07273
G1 X107.484 Y107.025 E4.25991
G1 X107.484 Y103.285 E4.47205
G1 X107.868 Y103.338 F7800.000
G1 E0.80205 F6000.000
G92 E0
G1 Z1.340 F7800.000
G1 X108.562 Y106.176
G1 Z1.040
G1 E3.67000 F1800.000
;TYPE:Solid infill
;WIDTH:0.725346
G1 F1200.000
G1 X109.642 Y105.097 E3.75996
G1 X109.642 Y104.367 E3.80295
G1 X109.412 Y104.367 E3.81647
G1 X108.332 Y105.447 E3.90642
G1 E0.23642 F6000.000
G92 E0
G1 Z1.340 F7800.000
G1 X108.332 Y107.049
G1 X108.332 Y109.878
G1 Z1.040
G1 E3.67000 F1800.000
;TYPE:Perimeter
;WIDTH:0.7
G1 F1290.000
G1 X110.131 Y109.878 E3.77202
G1 X110.131 Y112.372 E3.91351
G1 X108.137 Y112.372 E4.02664
G1 X108.137 Y109.878 E4.16813
G1 X108.272 Y109.878 E4.17583
G1 X111.887 Y112.378 F7800.000
G1 F1290.000
G1 X112.381 Y112.378 E4.20388
G1 X112.381 Y116.122 E4.41627
G1 X108.689 Y116.122 E4.62570
G1 X108.689 Y115.628 E4.65374
G1 X111.887 Y115.628 E4.83513
G1 X111.887 Y112.438 E5.01607
G1 X114.137 Y112.372 F7800.000
G1 F1290.000
G1 X114.137 Y109.878 E5.15756
G1 X116.131 Y109.878 E5.27069
G1 X116.131 Y112.372 E5.41218
G1 X114.197 Y112.372 E5.52190
G1 X110.784 Y111.725 F7800.000
;TYPE:External perimeter
G1 F1500
G1 X113.484 Y111.725 E5.67505
G1 X113.484 Y109.225 E5.81685
G1 X116.784 Y109.225 E6.00404
G1 X116.784 Y113.025 E6.21958
G1 X113.034 Y113.025 E6.43229
G1 X113.034 Y116.775 E6.64500
G1 X108.036 Y116.775 E6.92848
G1 X108.036 Y114.975 E7.03058
G1 X111.234 Y114.975 E7.21196
G1 X111.234 Y113.025 E7.32257
G1 X107.484 Y113.025 E7.53528
G1 X107.484 Y109.225 E7.75082
G1 X110.784 Y109.225 E7.93801
G1 X110.784 Y111.665 E8.07641
G1 X110.905 Y112.106 F7800.000
G1 X108.562 Y112.176
;TYPE:Solid infill
;WIDTH:0.725345
G1 F1200.000
G1 X109.642 Y111.097 E8.16637
G1 X109.642 Y110.367 E8.20935
G1 X109.412 Y110.367 E8.22288
G1 X108.332 Y111.447 E8.31283
G1 X114.332 Y111.447 F7800.000
G1 F1200.000
G1 X115.412 Y110.367 E8.40279
G1 X115.642 Y110.367 E8.41631
G1 X115.642 Y111.097 E8.45930
G1 X114.562 Y112.176 E8.54926
;LAYER_CHANGE
;Z:1.26
;HEIGHT:0.22
G1 Z1.260 F7800.000
G1 E4.87926 F6000.000
G92 E0
G1 Z1.560 F7800.000
G1 X114.381 Y109.701
G1 X114.137 Y106.372
G1 Z1.260
G1 E3.67000 F1800.000
;TYPE:Perimeter
;WIDTH:0.7
G1 F1290.000
G1 X114.137 Y104.378 E3.78313
G1 X116.131 Y104.378 E3.89626
G1 X116.131 Y106.372 E4.00938
G1 X114.197 Y106.372 E4.11911
G1 X113.484 Y103.725 F7800.000
;TYPE:External perimeter
G1 F1290.000
G1 X116.784 Y103.725 E4.30629
G1 X116.784 Y107.025 E4.49347
G1 X113.484 Y107.025 E4.68066
G1 X113.484 Y103.785 E4.86444
G1 X113.870 Y103.829 F7800.000
G1 X115.935 Y106.170
;TYPE:Solid infill
;WIDTH:0.830556
G1 F1200.000
G1 X114.339 Y104.574 E5.01812
G1 E1.34812 F6000.000
G92 E0
